icons/circle/48/love-wallpaper.svg

<svg xmlns="http://www.w3.org/2000/svg" viewBox="0 0 48 48">
 <g>
  <path d="m 36.31 5 c 5.859 4.062 9.688 10.831 9.688 18.5 c 0 12.426 -10.07 22.5 -22.5 22.5 c -7.669 0 -14.438 -3.828 -18.5 -9.688 c 1.037 1.822 2.306 3.499 3.781 4.969 c 4.085 3.712 9.514 5.969 15.469 5.969 c 12.703 0 23 -10.298 23 -23 c 0 -5.954 -2.256 -11.384 -5.969 -15.469 c -1.469 -1.475 -3.147 -2.744 -4.969 -3.781 z m 4.969 3.781 c 3.854 4.113 6.219 9.637 6.219 15.719 c 0 12.703 -10.297 23 -23 23 c -6.081 0 -11.606 -2.364 -15.719 -6.219 c 4.16 4.144 9.883 6.719 16.219 6.719 c 12.703 0 23 -10.298 23 -23 c 0 -6.335 -2.575 -12.06 -6.719 -16.219 z" style="opacity:0.05"/>
  <path d="m 41.28 8.781 c 3.712 4.085 5.969 9.514 5.969 15.469 c 0 12.703 -10.297 23 -23 23 c -5.954 0 -11.384 -2.256 -15.469 -5.969 c 4.113 3.854 9.637 6.219 15.719 6.219 c 12.703 0 23 -10.298 23 -23 c 0 -6.081 -2.364 -11.606 -6.219 -15.719 z" style="opacity:0.1"/>
  <path d="m 31.25 2.375 c 8.615 3.154 14.75 11.417 14.75 21.13 c 0 12.426 -10.07 22.5 -22.5 22.5 c -9.708 0 -17.971 -6.135 -21.12 -14.75 a 23 23 0 0 0 44.875 -7 a 23 23 0 0 0 -16 -21.875 z" style="opacity:0.2"/>
 </g>
 <path d="m 24 1 c -8.311 0 -15.584 4.394 -19.625 11 l 39.25 0 c -4.04 -6.606 -11.314 -11 -19.625 -11 z" style="fill:#6ece78;fill-opacity:1;stroke:none;fill-rule:nonzero"/>
 <path d="m 1.563 29 c 0.646 2.906 1.839 5.623 3.469 8 l 37.938 0 c 1.63 -2.377 2.823 -5.094 3.469 -8 l -44.875 0 z" style="fill:#e5dd45;fill-opacity:1;stroke:none;fill-rule:nonzero"/>
 <path d="m 5.03 37 c 4.144 6.04 11.09 10 18.969 10 c 7.882 0 14.824 -3.957 18.969 -10 l -37.938 0 z" style="fill:#b869c8;fill-opacity:1;stroke:none;fill-rule:nonzero"/>
 <path d="m 1.344 20 c -0.229 1.302 -0.344 2.633 -0.344 4 c 0 1.721 0.204 3.387 0.563 5 l 44.875 0 c 0.358 -1.613 0.563 -3.279 0.563 -5 c 0 -1.367 -0.115 -2.698 -0.344 -4 l -45.31 0 z" style="fill:#de70ce;fill-opacity:1;stroke:none;fill-rule:nonzero"/>
 <path d="m 4.375 12 c -1.471 2.404 -2.525 5.121 -3.03 8 l 45.31 0 c -0.506 -2.879 -1.561 -5.596 -3.03 -8 l -39.25 0 z" style="fill:#53b9ec;fill-opacity:1;stroke:none;fill-rule:nonzero"/>
 <g>
  <path d="m 40.03 7.531 c 3.712 4.084 5.969 9.514 5.969 15.469 0 12.703 -10.297 23 -23 23 c -5.954 0 -11.384 -2.256 -15.469 -5.969 4.178 4.291 10.01 6.969 16.469 6.969 c 12.703 0 23 -10.298 23 -23 0 -6.462 -2.677 -12.291 -6.969 -16.469 z" style="opacity:0.1"/>
 </g>
</svg>

<svg xmlns="http://www.w3.org/2000/svg" viewBox="0 0 48 48">
  <path d="M36.31 5c5.859 4.062 9.688 10.831 9.688 18.5 0 12.426-10.07 22.5-22.5 22.5-7.669 0-14.438-3.828-18.5-9.688a23.24 23.24 0 0 0 3.781 4.969 22.923 22.923 0 0 0 15.469 5.969c12.703 0 23-10.298 23-23a22.92 22.92 0 0 0-5.969-15.469A23.216 23.216 0 0 0 36.31 5zm4.969 3.781A22.911 22.911 0 0 1 47.498 24.5c0 12.703-10.297 23-23 23a22.909 22.909 0 0 1-15.719-6.219C12.939 45.425 18.662 48 24.998 48c12.703 0 23-10.298 23-23 0-6.335-2.575-12.06-6.719-16.219z" opacity=".05"/>
  <path d="M41.28 8.781a22.923 22.923 0 0 1 5.969 15.469c0 12.703-10.297 23-23 23A22.92 22.92 0 0 1 8.78 41.281 22.911 22.911 0 0 0 24.499 47.5c12.703 0 23-10.298 23-23A22.909 22.909 0 0 0 41.28 8.781z" opacity=".1"/>
  <path d="M31.25 2.375C39.865 5.529 46 13.792 46 23.505c0 12.426-10.07 22.5-22.5 22.5-9.708 0-17.971-6.135-21.12-14.75a23 23 0 0 0 44.875-7 23 23 0 0 0-16-21.875z" opacity=".2"/>
  <path d="M24 1C15.689 1 8.416 5.394 4.375 12h39.25C39.585 5.394 32.311 1 24 1z" fill="#6ece78"/>
  <path d="M1.563 29a22.974 22.974 0 0 0 3.469 8H42.97a22.974 22.974 0 0 0 3.469-8H1.564z" fill="#e5dd45"/>
  <path d="M5.03 37c4.144 6.04 11.09 10 18.969 10 7.882 0 14.824-3.957 18.969-10H5.03z" fill="#b869c8"/>
  <path d="M1.344 20a22.947 22.947 0 0 0 .219 9h44.875c.358-1.613.563-3.279.563-5a23.03 23.03 0 0 0-.344-4H1.347z" fill="#de70ce"/>
  <path d="M4.375 12a22.962 22.962 0 0 0-3.03 8h45.31a23.022 23.022 0 0 0-3.03-8H4.375z" fill="#53b9ec"/>
  <g>
    <path d="M40.03 7.531A22.922 22.922 0 0 1 45.999 23c0 12.703-10.297 23-23 23A22.92 22.92 0 0 1 7.53 40.031C11.708 44.322 17.54 47 23.999 47c12.703 0 23-10.298 23-23 0-6.462-2.677-12.291-6.969-16.469z" opacity=".1"/>
  </g>
</svg>
